Newaita-dark/actions/32/insert-image.svg

<svg height="32" viewBox="0 0 32 32" width="32" xmlns="http://www.w3.org/2000/svg"><g fill="#e0e0e0"><path d="m5.292969 2.894531c-1.464844 0-2.648438 1.183594-2.648438 2.648438v21.167969c0 1.464843 1.183594 2.644531 2.648438 2.644531h11.90625v-2.644531h-10.585938c-.265625 0-.511719-.078126-.71875-.210938l6.046875-10.996094 4.675782 7.597656c.125.203126.34375.324219.582031.324219v-1.992187l-4.707031-7.652344c-.121094-.199219-.339844-.320312-.570313-.324219-.257813-.003906-.492187.132813-.617187.355469l-6.011719 10.933594v-17.882813c0-.730469.589843-1.320312 1.320312-1.320312h18.523438c.734375 0 1.324219.589843 1.324219 1.320312v10.585938h2.644531v-11.90625c0-1.464844-1.179688-2.648438-2.644531-2.648438zm0 0"/><path d="m20.839844 8.164062c-1.652344 0-3.003906 1.351563-3.003906 3 0 1.652344 1.351562 3.003907 3.003906 3.003907 1.648437 0 3-1.351563 3-3.003907 0-1.648437-1.351563-3-3-3zm0 1.371094c.914062 0 1.628906.714844 1.628906 1.628906 0 .914063-.714844 1.628907-1.628906 1.628907-.917969 0-1.632813-.714844-1.632813-1.628907 0-.914062.714844-1.628906 1.632813-1.628906zm0 0"/><path d="m20.507812 23.402344h7.9375c.367188 0 .660157.296875.660157.664062v1.320313c0 .367187-.292969.664062-.660157.664062h-7.9375c-.367187 0-.664062-.296875-.664062-.664062v-1.320313c0-.367187.296875-.664062.664062-.664062zm0 0"/><path d="m25.800781 20.757812v7.9375c0 .367188-.296875.660157-.664062.660157h-1.320313c-.367187 0-.664062-.292969-.664062-.660157v-7.9375c0-.367187.296875-.664062.664062-.664062h1.320313c.367187 0 .664062.296875.664062.664062zm0 0"/></g></svg>

<svg xmlns="http://www.w3.org/2000/svg" xmlns:xlink="http://www.w3.org/1999/xlink" width="32px" height="32px" viewBox="0 0 32 32" version="1.1">
<g id="surface1">
     <defs>
  <style id="current-color-scheme" type="text/css">
   .ColorScheme-Text { color:#eeeeee; } .ColorScheme-Highlight { color:#424242; }
  </style>
 </defs>
<path style="fill:currentColor" class="ColorScheme-Text" d="M 5.292969 2.894531 C 3.828125 2.894531 2.644531 4.078125 2.644531 5.542969 L 2.644531 26.710938 C 2.644531 28.175781 3.828125 29.355469 5.292969 29.355469 L 17.199219 29.355469 L 17.199219 26.710938 L 6.613281 26.710938 C 6.347656 26.710938 6.101562 26.632812 5.894531 26.5 L 11.941406 15.503906 L 16.617188 23.101562 C 16.742188 23.304688 16.960938 23.425781 17.199219 23.425781 L 17.199219 21.433594 L 12.492188 13.78125 C 12.371094 13.582031 12.152344 13.460938 11.921875 13.457031 C 11.664062 13.453125 11.429688 13.589844 11.304688 13.8125 L 5.292969 24.746094 L 5.292969 6.863281 C 5.292969 6.132812 5.882812 5.542969 6.613281 5.542969 L 25.136719 5.542969 C 25.871094 5.542969 26.460938 6.132812 26.460938 6.863281 L 26.460938 17.449219 L 29.105469 17.449219 L 29.105469 5.542969 C 29.105469 4.078125 27.925781 2.894531 26.460938 2.894531 Z M 5.292969 2.894531 "/>
     <defs>
  <style id="current-color-scheme" type="text/css">
   .ColorScheme-Text { color:#eeeeee; } .ColorScheme-Highlight { color:#424242; }
  </style>
 </defs>
<path style="fill:currentColor" class="ColorScheme-Text" d="M 20.839844 8.164062 C 19.1875 8.164062 17.835938 9.515625 17.835938 11.164062 C 17.835938 12.816406 19.1875 14.167969 20.839844 14.167969 C 22.488281 14.167969 23.839844 12.816406 23.839844 11.164062 C 23.839844 9.515625 22.488281 8.164062 20.839844 8.164062 Z M 20.839844 9.535156 C 21.753906 9.535156 22.46875 10.25 22.46875 11.164062 C 22.46875 12.078125 21.753906 12.792969 20.839844 12.792969 C 19.921875 12.792969 19.207031 12.078125 19.207031 11.164062 C 19.207031 10.25 19.921875 9.535156 20.839844 9.535156 Z M 20.839844 9.535156 "/>
     <defs>
  <style id="current-color-scheme" type="text/css">
   .ColorScheme-Text { color:#eeeeee; } .ColorScheme-Highlight { color:#424242; }
  </style>
 </defs>
<path style="fill:currentColor" class="ColorScheme-Text" d="M 20.507812 23.402344 L 28.445312 23.402344 C 28.8125 23.402344 29.105469 23.699219 29.105469 24.066406 L 29.105469 25.386719 C 29.105469 25.753906 28.8125 26.050781 28.445312 26.050781 L 20.507812 26.050781 C 20.140625 26.050781 19.84375 25.753906 19.84375 25.386719 L 19.84375 24.066406 C 19.84375 23.699219 20.140625 23.402344 20.507812 23.402344 Z M 20.507812 23.402344 "/>
     <defs>
  <style id="current-color-scheme" type="text/css">
   .ColorScheme-Text { color:#eeeeee; } .ColorScheme-Highlight { color:#424242; }
  </style>
 </defs>
<path style="fill:currentColor" class="ColorScheme-Text" d="M 25.800781 20.757812 L 25.800781 28.695312 C 25.800781 29.0625 25.503906 29.355469 25.136719 29.355469 L 23.816406 29.355469 C 23.449219 29.355469 23.152344 29.0625 23.152344 28.695312 L 23.152344 20.757812 C 23.152344 20.390625 23.449219 20.09375 23.816406 20.09375 L 25.136719 20.09375 C 25.503906 20.09375 25.800781 20.390625 25.800781 20.757812 Z M 25.800781 20.757812 "/>
</g>
</svg>
